icons/svg/road_shields/h_white_sarabia_2_road_shield.svg

<?xml version="1.0" encoding="UTF-8" standalone="no"?>
<!-- Generator: Adobe Illustrator 16.0.4, SVG Export Plug-In . SVG Version: 6.00 Build 0)  -->

<svg
   xmlns:dc="http://purl.org/dc/elements/1.1/"
   xmlns:cc="http://creativecommons.org/ns#"
   xmlns:rdf="http://www.w3.org/1999/02/22-rdf-syntax-ns#"
   xmlns:svg="http://www.w3.org/2000/svg"
   xmlns="http://www.w3.org/2000/svg"
   xmlns:sodipodi="http://sodipodi.sourceforge.net/DTD/sodipodi-0.dtd"
   xmlns:inkscape="http://www.inkscape.org/namespaces/inkscape"
   version="1.1"
   id="Слой_1"
   x="0px"
   y="0px"
   width="35"
   height="33"
   viewBox="0 0 35 33"
   enable-background="new 0 0 17.143 17.17"
   xml:space="preserve"
   inkscape:version="0.91 r"
   sodipodi:docname="h_white_sarabia_2_road_shield.svg"><metadata
     id="metadata13"><rdf:RDF><cc:Work
         rdf:about=""><dc:format>image/svg+xml</dc:format><dc:type
           rdf:resource="http://purl.org/dc/dcmitype/StillImage" /><dc:title></dc:title></cc:Work></rdf:RDF></metadata><defs
     id="defs11" /><sodipodi:namedview
     pagecolor="#ffffff"
     bordercolor="#666666"
     borderopacity="1"
     objecttolerance="10"
     gridtolerance="10"
     guidetolerance="10"
     inkscape:pageopacity="0"
     inkscape:pageshadow="2"
     inkscape:window-width="1920"
     inkscape:window-height="1006"
     id="namedview9"
     showgrid="false"
     inkscape:zoom="8.0000005"
     inkscape:cx="26.498854"
     inkscape:cy="22.075019"
     inkscape:window-x="1680"
     inkscape:window-y="0"
     inkscape:window-maximized="1"
     inkscape:current-layer="Слой_1" /><path
     style="color:#000000;clip-rule:evenodd;display:inline;overflow:visible;visibility:visible;opacity:0.83699999;isolation:auto;mix-blend-mode:normal;color-interpolation:sRGB;color-interpolation-filters:linearRGB;solid-color:#000000;solid-opacity:1;fill:#f1eae4;fill-opacity:1;fill-rule:evenodd;stroke:none;stroke-width:1.18836343;stroke-linecap:butt;stroke-linejoin:miter;stroke-miterlimit:4;stroke-dasharray:none;stroke-dashoffset:0;stroke-opacity:1;marker:none;color-rendering:auto;image-rendering:auto;shape-rendering:auto;text-rendering:auto;enable-background:accumulate"
     d="M 2.5648222,2.0521576 C 2.2365983,2.0521902 1.9100331,2.1859025 1.6779438,2.4162229 1.4458544,2.6465433 1.3111151,2.9706198 1.3110823,3.2963419 l 0,11.5758631 0,11.575862 c 3.28e-5,0.325722 0.1347721,0.649798 0.3668615,0.880119 0.2320893,0.230319 0.5586545,0.364033 0.8868784,0.364065 l 13.3672888,0 13.36907,0 c 0.328224,-3.2e-5 0.65479,-0.133746 0.886878,-0.364065 0.23209,-0.230321 0.366829,-0.554397 0.366862,-0.880119 l 0,-11.575862 0,-11.5758631 C 30.554888,2.9706198 30.420149,2.6465433 30.188059,2.4162229 29.955971,2.1859025 29.629405,2.0521902 29.301181,2.0521576 l -13.36907,0 z"
     id="path4209"
     inkscape:connector-curvature="0"
     sodipodi:nodetypes="cscccscccscccsccc" /><rect
     style="color:#000000;clip-rule:nonzero;display:inline;overflow:visible;visibility:visible;opacity:1;isolation:auto;mix-blend-mode:normal;color-interpolation:sRGB;color-interpolation-filters:linearRGB;solid-color:#000000;solid-opacity:1;fill:#ffffff;fill-opacity:1;fill-rule:nonzero;stroke:none;stroke-width:1;stroke-linecap:butt;stroke-linejoin:miter;stroke-miterlimit:4;stroke-dasharray:none;stroke-dashoffset:0;stroke-opacity:1;marker:none;color-rendering:auto;image-rendering:auto;shape-rendering:auto;text-rendering:auto;enable-background:accumulate"
     id="rect4176"
     width="26.352789"
     height="22.886263"
     x="2.7651649"
     y="3.3030796"
     ry="0" /><path
     style="color:#000000;clip-rule:nonzero;display:inline;overflow:visible;visibility:visible;opacity:1;isolation:auto;mix-blend-mode:normal;color-interpolation:sRGB;color-interpolation-filters:linearRGB;solid-color:#000000;solid-opacity:1;fill:#006c35;fill-opacity:1;fill-rule:nonzero;stroke-width:1;stroke-linecap:butt;stroke-linejoin:miter;stroke-miterlimit:4;stroke-dasharray:none;stroke-dashoffset:0;stroke-opacity:1;color-rendering:auto;image-rendering:auto;shape-rendering:auto;text-rendering:auto;enable-background:accumulate"
     d="m 2.6867636,14.762384 0,-11.5115038 26.5365154,0 0,23.0117448 -26.5365154,0 z M 13.843592,26.192552 c 0.745273,0.210161 1.114056,-1.021431 2.015816,-0.817825 1.110771,-0.3702 2.303047,-0.680715 3.14632,-1.534943 0.940398,-0.13071 1.79291,-0.58554 2.694316,-0.957932 -0.05083,-1.335781 1.752624,-1.658938 2.830281,-1.658302 0.34514,-0.760381 0.768522,-1.154602 1.584551,-1.288369 -0.13367,-1.26418 1.916288,-0.720938 1.177682,-2.051341 0.0245,-0.68433 0.214874,-0.846581 0.689072,-0.711735 0.194311,-0.821155 1.83345,-1.924016 0.910045,-2.67264 -0.665461,-1.507733 -2.585947,-1.114098 -3.344943,-2.445176 -0.33734,-0.678854 -0.08224,-3.0205354 -0.916058,-1.253477 -0.876581,0.626438 -1.081657,1.861353 -2.245822,1.905931 -0.854545,-0.0599 -2.374754,0.369975 -1.894128,-0.915314 0.148459,-0.654931 -0.424191,-2.143033 -0.968006,-0.922225 0.0061,1.492641 -0.84014,-0.750485 -0.674245,-1.12815 C 18.028375,9.0986677 17.452856,8.5706117 16.929925,7.6455825 16.154816,7.7256845 15.925296,6.905373 15.134712,6.914614 13.740947,6.880132 12.41495,6.6327098 11.454295,5.5354541 10.266244,4.7077101 9.1072582,3.6171709 7.6445523,3.3570482 6.8733733,3.077277 6.2782384,3.8119567 5.5280797,3.868869 4.1169967,3.9034123 5.9488515,4.9393932 5.9554537,5.2837967 5.3328928,5.265236 5.7809673,6.2041633 4.8735511,5.9764888 4.5596216,6.9716196 3.5590545,6.5479463 2.9724471,6.7072122 3.0748069,7.3605092 2.2070264,8.4969219 3.2944577,8.2559231 4.1690794,9.308013 4.8148676,10.482917 5.6158774,11.568233 c -0.2292404,1.289707 1.847565,1.263164 1.7962638,2.663255 0.4630292,0.99691 0.059352,2.822834 1.5239881,3.158728 1.0669647,0.641529 1.0343832,2.058432 1.9211327,2.871203 1.145491,0.764019 0.81992,2.198955 1.106004,3.184641 0.565595,0.960116 0.117548,3.168937 1.748213,2.796299 l 0.132139,-0.04978 z M 23.389426,10.688273 C 23.131401,9.8667172 22.535612,7.3166543 23.932863,8.9497215 24.664115,9.4232612 22.756458,9.3425355 23.808271,9.8177349 24.245489,8.829735 25.701038,10.350435 25.663068,9.153162 25.235823,9.1804511 24.038384,9.097393 25.110798,8.8386687 25.375788,7.8926908 24.524531,8.6340464 24.293551,8.7460864 23.633918,8.295451 22.696083,7.6505171 24.090956,7.3938269 24.664935,6.9919882 27.412985,7.0392902 25.512435,6.8962762 24.71163,6.5724228 23.345811,7.6998673 23.047932,7.2091853 22.98799,6.5378269 22.961655,5.0997263 23.439183,5.9302597 23.226186,4.9874879 24.145724,6.9985673 23.89454,5.8099394 23.316371,4.6686136 24.579153,6.8836387 24.192642,5.5613137 23.479484,4.3398197 25.021513,6.5152013 24.448145,5.2655209 23.697496,4.5855226 24.348955,4.9379842 24.386718,4.7356649 23.987073,4.4851325 23.175522,4.3131811 24.196979,4.4613113 23.773839,4.0450252 23.125903,4.1759783 23.038172,4.0892235 c -0.410019,0.1176623 -0.90621,-0.22217 -0.540626,0.1293348 -0.47173,-0.2759988 -1.756853,0.396407 -0.545826,0.2209978 -0.197776,-0.031293 -1.440592,0.7184794 -0.269654,0.2712835 -0.557949,0.4006011 -0.96221,1.5019022 -0.09668,0.4639567 -0.328108,0.5340332 -0.296425,1.3275638 0.120666,0.3969785 0.263497,-0.3518599 -0.318792,1.4346114 0.348012,0.1964678 0.274246,-0.3219428 0.02311,0.4762673 0.486851,-0.2401779 0.09283,1.0653327 0.31189,2.5182525 -1.067686,1.5295615 -0.682255,-0.3493981 -3.240311,-0.058127 -1.328246,0.020868 0.527922,0.057338 2.916348,0.468005 1.817728,1.1452741 -0.567577,0.7558846 -0.852862,0.439449 -1.370824,0.062093 -0.795184,0.6257575 1.031425,0.6598464 0.02811,0.9470886 -1.057542,-0.6336095 -0.71313,0.9355131 0.19518,0.3643851 0.3733,-0.5812945 1.459412,0.839952 1.177264,-0.2635202 -1.336155,0.2598294 0.691879,-1.4777993 0.591221,-0.8649082 0.199379,0.6711574 -0.649298,2.0337814 -0.165837,2.2571584 0.323716,-0.0065 0.651666,0.02121 0.971601,-0.03779 z"
     id="path4146"
     inkscape:connector-curvature="0"
     sodipodi:nodetypes="ccccccccccccccccccccccccccccccccccccccccccccccccccccccccccccccccccccccc" /></svg>

<svg width="35" height="33" viewBox="0 0 35 33" fill="none" xmlns="http://www.w3.org/2000/svg">
<path opacity="0.837" fill-rule="evenodd" clip-rule="evenodd" d="M2.56484 2.05219C2.23661 2.05222 1.91005 2.18593 1.67796 2.41625C1.44587 2.64657 1.31113 2.97065 1.3111 3.29637V14.8722V26.4481C1.31113 26.7738 1.44587 27.0979 1.67796 27.3282C1.91005 27.5585 2.23661 27.6922 2.56484 27.6923H15.9321H29.3012C29.6294 27.6922 29.956 27.5585 30.1881 27.3282C30.4202 27.0979 30.5549 26.7738 30.5549 26.4481V14.8722V3.29637C30.5549 2.97065 30.4202 2.64657 30.1881 2.41625C29.956 2.18593 29.6294 2.05222 29.3012 2.05219H15.9321H2.56484Z" fill="#F1EAE4"/>
<path d="M29.118 3.3031H2.76517V26.1894H29.118V3.3031Z" fill="white"/>
<path d="M2.68677 14.7624V3.25085H29.2233V26.2626H2.68677V14.7624ZM13.8436 26.1925C14.5889 26.4027 14.9577 25.1711 15.8594 25.3747C16.9702 25.0045 18.1625 24.694 19.0057 23.8398C19.9461 23.709 20.7986 23.2542 21.7 22.8818C21.6492 21.546 23.4527 21.2229 24.5303 21.2235C24.8755 20.4631 25.2989 20.0689 26.1149 19.9352C25.9812 18.671 28.0312 19.2142 27.2926 17.8838C27.3171 17.1995 27.5074 17.0372 27.9816 17.1721C28.1759 16.3509 29.8151 15.2481 28.8917 14.4994C28.2262 12.9917 26.3057 13.3853 25.5467 12.0543C25.2094 11.3754 25.4645 9.03373 24.6307 10.8008C23.7541 11.4272 23.549 12.6621 22.3849 12.7067C21.5303 12.6468 20.0101 13.0767 20.4907 11.7914C20.6392 11.1365 20.0665 9.64837 19.5227 10.8692C19.5288 12.3618 18.6826 10.1187 18.8485 9.74103C18.0284 9.09864 17.4529 8.57059 16.9299 7.64556C16.1548 7.72566 15.9253 6.90535 15.1347 6.91459C13.741 6.88011 12.415 6.63268 11.4543 5.53543C10.2662 4.70768 9.10726 3.61715 7.64456 3.35702C6.87338 3.07725 6.27824 3.81193 5.52808 3.86884C4.117 3.90339 5.94886 4.93937 5.95546 5.28377C5.3329 5.26521 5.78097 6.20414 4.87355 5.97646C4.55963 6.97159 3.55906 6.54792 2.97245 6.70719C3.07481 7.36048 2.20703 8.4969 3.29446 8.2559C4.16908 9.30799 4.81487 10.4829 5.61588 11.5682C5.38664 12.8579 7.46345 12.8314 7.41215 14.2315C7.87517 15.2284 7.4715 17.0543 8.93613 17.3902C10.0031 18.0317 9.97052 19.4486 10.8573 20.2614C12.0028 21.0254 11.6772 22.4603 11.9633 23.446C12.5289 24.4061 12.0808 26.615 13.7115 26.2423L13.8436 26.1926L13.8436 26.1925ZM23.3894 10.6882C23.1314 9.86669 22.5356 7.31663 23.9329 8.9497C24.6641 9.42324 22.7565 9.34251 23.8083 9.81771C24.2455 8.82971 25.701 10.3504 25.6631 9.15314C25.2358 9.18043 24.0384 9.09737 25.1108 8.83864C25.3758 7.89267 24.5245 8.63402 24.2936 8.74606C23.6339 8.29542 22.6961 7.65049 24.091 7.3938C24.6649 6.99196 27.413 7.03926 25.5124 6.89625C24.7116 6.5724 23.3458 7.69984 23.0479 7.20916C22.988 6.5378 22.9617 5.0997 23.4392 5.93023C23.2262 4.98746 24.1457 6.99854 23.8945 5.80991C23.3164 4.66859 24.5792 6.88361 24.1926 5.56129C23.4795 4.33979 25.0215 6.51518 24.4481 5.2655C23.6975 4.5855 24.349 4.93796 24.3867 4.73564C23.9871 4.48511 23.1755 4.31316 24.197 4.46129C23.7738 4.045 23.1259 4.17595 23.0382 4.0892C22.6282 4.20686 22.132 3.86703 22.4975 4.21853C22.0258 3.94253 20.7407 4.61494 21.9517 4.43953C21.7539 4.40824 20.5111 5.15801 21.6821 4.71081C21.1241 5.11142 20.7199 6.21272 21.5854 5.17477C21.2573 5.7088 21.289 6.50233 21.7061 5.57175C21.9696 5.21989 21.3873 7.00636 22.0541 5.76822C22.3283 5.44627 22.0772 6.24448 22.5409 5.52804C22.6337 6.59337 22.8528 8.04629 21.4732 7.0576C20.791 6.7082 18.2329 6.99947 20.145 7.07847C20.6729 7.13581 23.0613 7.54647 21.9627 8.22374C21.3951 8.97963 21.1099 8.66319 20.5919 8.28584C19.7967 8.91159 21.6233 8.94568 20.62 9.23292C19.5625 8.59931 19.9069 10.1684 20.8152 9.59731C21.1885 9.01601 22.2746 10.4373 21.9924 9.33379C20.6563 9.59362 22.6843 7.85599 22.5837 8.46888C22.783 9.14004 21.9344 10.5027 22.4178 10.726C22.7415 10.7195 23.0695 10.7472 23.3894 10.6882V10.6882Z" fill="#006C35"/>
</svg>
